src/img/ic_telegram.svg

<svg height="32" viewBox="0 0 32 32" width="32" xmlns="http://www.w3.org/2000/svg"><path d="m0 0h32v32h-32z" fill="none"/><path d="m13.078-23.2a13.076 13.076 0 0 0 -13.078 13.075 13.076 13.076 0 0 0 13.078 13.078 13.076 13.076 0 0 0 13.078-13.078 13.076 13.076 0 0 0 -13.078-13.075zm6.423 8.96-2.146 10.111c-.158.717-.585.891-1.181.554l-3.274-2.41-1.573 1.518a.825.825 0 0 1 -.659.322l.232-3.327 6.059-5.474c.264-.232-.058-.364-.406-.132l-7.488 4.714-3.227-1.007c-.7-.221-.717-.7.148-1.039l12.609-4.862c.585-.211 1.096.142.905 1.028z" fill="#91929e" transform="translate(3 26.203)"/></svg>

<svg xmlns="http://www.w3.org/2000/svg" width="32" height="32" viewBox="0 0 32 32">
  <g id="ic_telegram" transform="translate(-1044 -2956.297)">
    <rect id="bg" width="32" height="32" transform="translate(1044 2956.297)" fill="none"/>
    <path id="ic_telegram-2" data-name="ic_telegram" d="M13.078-23.2A13.076,13.076,0,0,0,0-10.125,13.076,13.076,0,0,0,13.078,2.953,13.076,13.076,0,0,0,26.156-10.125,13.076,13.076,0,0,0,13.078-23.2Zm6.423,8.96L17.355-4.129c-.158.717-.585.891-1.181.554L12.9-5.985,11.327-4.467a.825.825,0,0,1-.659.322L10.9-7.472l6.059-5.474c.264-.232-.058-.364-.406-.132L9.065-8.364,5.838-9.371c-.7-.221-.717-.7.148-1.039l12.609-4.862C19.18-15.483,19.691-15.13,19.5-14.244Z" transform="translate(1047 2982.5)" fill="#91929e"/>
  </g>
</svg>
